X:320
T: Taidhgin an Asail's Jig
T: Kitchen With No Food
S: "Johnny O'Leary of Sliabh Luachra" (#251)
Z: B.Black
N: version of "Where's the Cat"
L: 1/8
M: 12/8
Q: 375
R: slide
K: G
DED G2D EED G2G|DED G2B ABG A2D|
DED G2G EED G3|Bcd c2B ABG EED :|
B/A/Bc d2B AGE c3|BAB ddB ABG E2D|
BGB d2B AGE c3|g/f/ge d2B ABG E2D :|
